icons/svg/fast-foward.svg

<svg width="24" height="24" viewBox="0 0 24 24" fill="none" xmlns="http://www.w3.org/2000/svg">
<path d="M5.99552 18.3229C4.97602 19.1071 3.5 18.3803 3.5 17.0941V6.90592C3.5 5.61968 4.97602 4.89289 5.99552 5.67712L12.2204 10.8687C12.9265 11.4576 12.9265 12.5424 12.2204 13.1313L5.99552 18.3229Z" stroke="currentColor" stroke-width="1.5" stroke-linejoin="round"/>
<path d="M15.2455 18.3229C14.226 19.1071 12.75 18.3803 12.75 17.0941V6.90592C12.75 5.61968 14.226 4.89289 15.2455 5.67712L21.4704 10.8687C22.1765 11.4576 22.1765 12.5424 21.4704 13.1313L15.2455 18.3229Z" stroke="currentColor" stroke-width="1.5" stroke-linejoin="round"/>
</svg>

<svg xmlns="http://www.w3.org/2000/svg" width="24" height="24" fill="none" viewBox="0 0 24 24"><path stroke="currentColor" stroke-linejoin="round" stroke-width="1.5" d="M5.996 18.323c-1.02.784-2.496.057-2.496-1.229V6.906c0-1.286 1.476-2.013 2.496-1.229l6.224 5.192a1.473 1.473 0 0 1 0 2.262z"/><path stroke="currentColor" stroke-linejoin="round" stroke-width="1.5" d="M15.246 18.323c-1.02.784-2.496.057-2.496-1.229V6.906c0-1.286 1.476-2.013 2.496-1.229l6.224 5.192a1.473 1.473 0 0 1 0 2.262z"/></svg>
